resources/svg/bank-duotone.svg

<svg xmlns="http://www.w3.org/2000/svg" viewBox="0 0 256 256" fill="currentColor"><g opacity="0.2"><polygon points="24.002 96 232.002 96 128.002 32 24.002 96"/></g><path d="M24.00244,104h24v64h-16a8,8,0,0,0,0,16h192a8,8,0,0,0,0-16h-16V104h24a8.0001,8.0001,0,0,0,4.19238-14.81348l-104-64a7.9998,7.9998,0,0,0-8.38476,0l-104,64A8.00011,8.00011,0,0,0,24.00244,104Zm40,0h32v64h-32Zm80,0v64h-32V104Zm48,64h-32V104h32Zm-64-126.60645L203.73779,88H52.26709ZM248.00244,208a8.00039,8.00039,0,0,1-8,8h-224a8,8,0,0,1,0-16h224A8.00039,8.00039,0,0,1,248.00244,208Z"/></svg>

<svg xmlns="http://www.w3.org/2000/svg" viewBox="0 0 256 256" fill="currentColor"><g opacity="0.2"><polygon points="24 96 232 96 128 32 24 96"/></g><path d="M24,104H48v64H32a8,8,0,0,0,0,16H224a8,8,0,0,0,0-16H208V104h24a8,8,0,0,0,4.2-14.8l-104-64a7.9,7.9,0,0,0-8.4,0l-104,64A8,8,0,0,0,24,104Zm40,0H96v64H64Zm80,0v64H112V104Zm48,64H160V104h32ZM128,41.4,203.7,88H52.3ZM248,208a8,8,0,0,1-8,8H16a8,8,0,0,1,0-16H240A8,8,0,0,1,248,208Z"/></svg>
